X:671
T:Planxty Charles Coote
C:O'Carolan
B:O'Neill's 671
Z: 1997 by John Chambers <jc@trillian.mit.edu>
N:"Lively"
M:C
L:1/8
K:C
GF \
|E2G2 D2G2|FEDC E2G2|ABc2 dedc|cBAB G2ed|
|c2g2 gagf|edef g2fe|.fedc .cBAB|Bc4 c2 :|
||cd \
|.e2.g2 .gagf|efge c'2c2|.efge .c'bag|.agfe d2z2|
|gfefe d2eg|.fedc .cBAB|.cBce .dBGB|[c4E4] [c2E2]|]
